X:1
T:johnson: eliza is the fairest queen (piano reduction)
%%score 1 [ ( 2 3 4 ) ( 5 6 ) ]
L:1/8
Q:1/4=120
M:6/2
K:F
V:1 treble transpose=-12 nm="Voice"
V:2 treble nm="Midi_75"
V:3 treble 
V:4 treble 
V:5 bass nm="Midi_75"
V:6 bass 
V:1
 z4 z4"^Eliza is the fairest Queen" G4 | B8 A4 z4 z4 c4 | _e8 d4 z4 z4 d4 | %3
w: E-|li- za, E-|li- za, E-|
w: E-|li- za, E-|li- za, E-|
 f6 f2 e4"^Edward Johnson""^(c. 1549 - c. 1602)" d4 c4 B4 | A8 z4 B4 c4 d4 | _e12 d4 c4 c4 | %6
w: li- za is the fair- est|Queen That ev- er|trod u- pon the|
w: li- za's hand is crys- tal|bright, her words are|balm her looks are|
 B8 z4 z4 z4 d4 | d8 d4 z4 z4 d4 | d6 d2 d4 f4 e4 e4 | d8 z4 G4 A4 B4 | c12 B4 A4 A4 | %11
w: green. E-|li- za, E-|\-li- za's eyes are bless- ed|stars, In- duc- ing|peace, sub- du- ing|
w: light E-|li- za, E-|\-li- za's breast is that fair|hill, where vir- tue|dwells, and sac- red|
 G8 z4 F4 B4 B4 | A8 d4 d6 c2 B4 | A8 z4 d4 B4 c4 | d8 c8 B4 A4 | !fermata!G12 :| %16
w: wars. O bless- ed|be each day and *|hour Where sweet E-|li- za builds her|bower!|
w: skills. O bless- ed|be each day and *|hour Where sweet E-|li- za builds her|bower!|
V:2
 G4 G4 G4 | G8 F4 B8 A2 B2 | c8 B2 c2 d6 c2 B4 | A6 B2 c4 F8 G4 | ^F6 G2 A4 D4 G2 A2 B4- | %5
 B2 A2 G2 A2 B4 B8 A4 | B12 d4 c4 B4 | B8 A4 B4 G4 A4 | B8 A4 A4 A6 A2 | A4 d8 c4 d4 D4 | %10
 G6 G2 ^F4 D2 G4 F=E F4 | G12 D4 D4 D4 | D8 D4 G8 G4 | ^F8 z4 =F4 G4 A4 | B8 A4 G8 ^F4 | G12 :| %16
V:3
 D4 D4 D4 | D8 D4 F8 F4 | G8 G4 F8 G4 | C4 D4 E4 x4 C4 C4 | D8 D4 D4 _E4 =F4 | G8 x4 F4 F6 _E2 | %6
 D12 F4 F4 F4 | G8 D4 D4 _E4 F4 | G8 D4 D4 E4 E4 | F8 G8 F8 | _E8 D8 D6 C2 | =B,12 _B,4 B,4 D4 | %12
 A,8 A,4 B,6 C2 D4 | D8 z4 D4 G4 _E4 | D4 F4 E8 D6 C2 | !fermata!=B,12 :| %16
V:4
 B,4 B,4 B,4 | B,8 x4 D8 C4 | C4 x4 B,8 C4 D4 | A,8 A,4 D2 B,2 x2 A,2 B,2 G,2 | A,8 A,4 B,4 x8 | %5
 x16 F,4 F,4 | x16 C4 D4 | D8 D4 B,4 B,4 D4 | D8 A,4 A,4 A,6 G,2 | x16 x4 F,4 | %10
 G,4 C4 A,4 B,2 C2 D4 x4 | x12 F,4 G,4 G,4 | ^F,8 F,4 G,8 x4 | A,8 z4 A,4 x8 | x16 x4 x4 | x12 :| %16
V:5
 x12 | z4 z4 F,2 A,2 x12 | x16 x8 | x16 x8 | D,8 D,4 B,,4 [_E,G,]4 [D,F,]4 | %5
 [C,_E,]8 [B,,F,]8 F,4 F,,4 | [B,,F,]12 B,4 A,4 B,4 | G,8 ^F,4 G,4 _E,4 D,4 | x16 x8 | %9
 F,2 G,2 A,4 G,8 x8 | x16 x8 | x16 x8 | x16 x4 D,4 | x16 x4 x4 | F,4 D,4 E,8 ^F,4 D,4 | x12 :| %16
V:6
 G,4 G,4 G,4 | G,,2 A,,2 B,,2 C,2 D,4 B,,2 C,2 D,2 E,2 F,4 | %2
 C,2 D,2 [_E,G,]2 [F,A,]2 G,2 A,2 B,4 A,4 G,4- | F,4 D,4 C,4 B,,4 A,,4 G,,4 | x24 | x24 | x24 | %7
 x24 | G,8 ^F,4 D,4 A,4 A,,4 | D,8 _E,8 D,8 | C,8 D,12 D,4 | [G,,D,]12 D,4 B,,4 G,,4 | %12
 D,8 D,4 G,,6 A,,2 B,,2 C,2 | D,8 z4 D,4 [_E,G,]4 C,4 | B,,8 C,8 D,4 D,4 | !fermata![G,,D,]12 :| %16

